packages/ui/assets/svg/partner_aragon.svg

<svg class="partner-size" width="53" height="50" viewBox="0 0 53 50" fill="none" xmlns="http://www.w3.org/2000/svg">
<g id="partner_aragon" clip-path="url(#clip0_205_2)">
<path id="circle5829" d="M18.3641 35.4941C30.0859 35.4941 39.5883 25.9429 39.5883 14.1608C39.5883 2.37871 30.0859 -7.17255 18.3641 -7.17255C6.6424 -7.17255 -2.85995 2.37871 -2.85995 14.1608C-2.85995 25.9429 6.6424 35.4941 18.3641 35.4941Z" fill="url(#paint0_linear_205_2)" fill-opacity="0.05"></path>
<path id="path5831" d="M51.5494 18.805C51.7666 14.2715 48.6164 11.264 45.0613 9.19916L42.7504 22.8448C44.3503 22.755 45.1324 23.3655 45.4168 23.6527C45.7722 24.0118 46.6611 25.0891 45.5945 26.7948C47.8165 26.4357 51.2871 24.2811 51.5494 18.805V18.805Z" fill="url(#paint1_linear_205_2)"></path>
<path id="path5833" fill-rule="evenodd" clip-rule="evenodd" d="M21.2366 2.91813L18.4814 0.135123C22.6291 -0.373533 33.573 0.278781 44.1673 6.95797C44.3451 7.67617 44.1673 8.75346 44.1673 8.75346L45.0561 9.20233C45.8263 10.3096 47.1358 13.4576 46.2115 17.1922C45.2871 20.9269 43.6933 22.5188 43.0119 22.848C41.5898 22.848 39.1724 23.674 38.3901 27.3367C37.608 30.9995 36.109 31.7956 35.4572 31.7357L19.8145 31.9152L9.50462 25.8106L7.9937 13.1524L10.9267 9.20233L16.1705 4.89316L19.9035 3.367L21.2366 2.91813ZM39.7114 8.14707C39.0216 8.86929 38.3766 9.2157 38.1924 9.30971C34.1647 8.44854 32.7135 6.35404 32.7135 6.35404C36.5128 6.33044 39.9419 7.2388 42.4507 8.77529C42.4507 8.77529 41.0926 8.33291 39.7114 8.14707Z" fill="url(#paint2_linear_205_2)"></path>
<path id="path5835" fill-rule="evenodd" clip-rule="evenodd" d="M38.2527 27.3376C35.4915 28.6997 32.2178 29.4882 28.7078 29.4882C18.8415 29.4882 10.8432 23.2582 10.8432 15.5732C10.8432 9.89624 15.2077 5.01322 21.4655 2.849C9.564 3.53819 0 13.1485 0 25.0065C0 38.6921 12.1366 50 27.108 50C38.2874 50 47.5933 43.485 52.459 34.7683C45.7639 36.2817 37.8384 33.4044 38.2527 27.3376Z" fill="url(#paint3_linear_205_2)"></path>
</g>
<defs>
<linearGradient id="paint0_linear_205_2" x1="18.3641" y1="7.75705" x2="18.3641" y2="36.055" gradientUnits="userSpaceOnUse">
<stop stop-color="#01E8F8"></stop>
<stop offset="1" stop-color="#01E8F8" stop-opacity="0"></stop>
</linearGradient>
<linearGradient id="paint1_linear_205_2" x1="47.1929" y1="13.1281" x2="48.6011" y2="29.8145" gradientUnits="userSpaceOnUse">
<stop stop-color="#01E8F7"></stop>
<stop offset="1" stop-color="#00C2FF"></stop>
</linearGradient>
<linearGradient id="paint2_linear_205_2" x1="20.4622" y1="3.42285" x2="36.7076" y2="29.074" gradientUnits="userSpaceOnUse">
<stop stop-color="#01E8F7"></stop>
<stop offset="1" stop-color="#00B3EC"></stop>
</linearGradient>
<linearGradient id="paint3_linear_205_2" x1="26.4539" y1="16.1853" x2="27.9085" y2="57.6916" gradientUnits="userSpaceOnUse">
<stop stop-color="#01E8F7"></stop>
<stop offset="1" stop-color="#00C2FF"></stop>
</linearGradient>
<clipPath id="clip0_205_2">
<rect width="52.459" height="50" fill="white"></rect>
</clipPath>
</defs>
</svg>

<svg class="partner-size" width="53" height="50" viewBox="0 0 53 50" fill="none" xmlns="http://www.w3.org/2000/svg"><g clip-path="url(#clip0_205_2)"><path d="M18.364 35.494c11.722 0 21.224-9.551 21.224-21.333 0-11.782-9.502-21.334-21.224-21.334S-2.86 2.38-2.86 14.161s9.502 21.333 21.224 21.333Z" fill="url(#paint0_linear_205_2)" fill-opacity=".05"/><path d="M51.55 18.805c.217-4.534-2.934-7.541-6.489-9.606l-2.31 13.646c1.6-.09 2.381.52 2.666.808.355.359 1.244 1.436.177 3.142 2.222-.36 5.693-2.514 5.955-7.99Z" fill="url(#paint1_linear_205_2)"/><path fill-rule="evenodd" clip-rule="evenodd" d="M21.237 2.918 18.48.135C22.63-.374 33.573.28 44.167 6.958c.178.718 0 1.795 0 1.795l.89.45c.77 1.107 2.079 4.255 1.154 7.99-.924 3.734-2.518 5.326-3.2 5.655-1.421 0-3.839.826-4.62 4.489-.783 3.663-2.282 4.459-2.934 4.399l-15.643.18-10.31-6.105-1.51-12.659 2.933-3.95 5.244-4.309 3.733-1.526 1.333-.449Zm18.474 5.23c-.69.721-1.334 1.068-1.519 1.162-4.027-.861-5.478-2.956-5.478-2.956 3.799-.024 7.228.885 9.737 2.421 0 0-1.358-.442-2.74-.628Z" fill="url(#paint2_linear_205_2)"/><path fill-rule="evenodd" clip-rule="evenodd" d="M38.253 27.338c-2.761 1.362-6.035 2.15-9.545 2.15-9.866 0-17.865-6.23-17.865-13.915 0-5.677 4.365-10.56 10.622-12.724C9.564 3.539 0 13.149 0 25.006 0 38.692 12.137 50 27.108 50c11.18 0 20.485-6.515 25.351-15.232-6.695 1.514-14.62-1.364-14.206-7.43Z" fill="url(#paint3_linear_205_2)"/></g><defs><linearGradient id="paint0_linear_205_2" x1="18.364" y1="7.757" x2="18.364" y2="36.055" gradientUnits="userSpaceOnUse"><stop stop-color="#01E8F8"/><stop offset="1" stop-color="#01E8F8" stop-opacity="0"/></linearGradient><linearGradient id="paint1_linear_205_2" x1="47.193" y1="13.128" x2="48.601" y2="29.814" gradientUnits="userSpaceOnUse"><stop stop-color="#01E8F7"/><stop offset="1" stop-color="#00C2FF"/></linearGradient><linearGradient id="paint2_linear_205_2" x1="20.462" y1="3.423" x2="36.708" y2="29.074" gradientUnits="userSpaceOnUse"><stop stop-color="#01E8F7"/><stop offset="1" stop-color="#00B3EC"/></linearGradient><linearGradient id="paint3_linear_205_2" x1="26.454" y1="16.185" x2="27.909" y2="57.692" gradientUnits="userSpaceOnUse"><stop stop-color="#01E8F7"/><stop offset="1" stop-color="#00C2FF"/></linearGradient><clipPath id="clip0_205_2"><path fill="#fff" d="M0 0h52.459v50H0z"/></clipPath></defs></svg>
